!!!OTL: 111. Der Haenger.
!!!COM: Fr. Reichardt.
!!!ODT: 1795
!!!ARE: Europa, Mitteleuropa, Deutschland
!!!SCT: B0111
!!!TXL: @@DE
!!!YEM: Copyright 1995, estate of Helmut Schaffrath.
**kern	**text
*ICvox	*
*Ivox	*
*M4/4	*
*met(c)	*
*clefG2	*
*k[b-e-]	*
*B-:	*
!LO:TX:a:t=Etwas Lebhaft.	!
{8b-	Was
=1	=1
4.b-	hör
8f	ich
4d	drau-
4f	-ßen
=2	=2
4b-	vor
4cc	dem
4dd	Thor,
8r}	.
{8dd	was
=3	=3
4dd	auf
8ccL	der
8ddJ	.
8ee-L	Brü-
8ddJ	.
8ccL	-cke
8b-J	.
=4	=4
2cc	ſchal-
4f	-len?
8r}	.
{8b-	Laß
=5	=5
4.b-	den
8f	Ge-
4d	-ſang
4f	vor
=6	=6
4b-	un-
4cc	-ſerm
4dd	Ohr
8r}	.
{8dd	im
=7	=7
4dd	Saa-
8ccL	-le
8ddJ	.
8ee-L	wie-
8ddJ	.
8ccL	-der-
8b-J	.
=8	=8
2cc	-hal-
4f	-len!
8r}	.
{8f	Der
=9	=9
4.f	Kö-
8g	-nig
4.a	ſprachs,
8g	der
=10	=10
8fL	Pa-
8gJ	.
8aL	-ge
8b-J	.
4cc	lief;
8r}	.
{8b-	der
=11	=11
4.a	Kna-
8b-	-be
4.cc	kam,
8b-	der
=12	=12
8aL	Kö-
8b-J	.
8ccL	-nig
8ddJ	.
4ee-	rief:
8r}	.
{8ee-	Laßt
=13	=13
4.dd	mir
8b-	he-
8gL	-rein
8b-J	.
8a/L	den
8ccJ	.
=14	=14
2b-/	Al-
4B-	-ten!
8r}	.
==	==
!!!AGN: Ballade, Romanze
!!!GTL: Balladen und Romanzen
!!!ONB: ESAC (Essen Associative Code) Database: BOEHME
!!!AMT: simple quadruple
!!!AIN: vox
!!!EED: Helmut Schaffrath
!!!EEV: 1.0
!!@@COMMENT:"Ballade von Goethe, 1782. Text hier nach der kritiֵ¿chen Ausgabe von Goethes Gedichten
!!durch Gֳ¶deke), Stuttgart, Cotta's Verlag 1869. Zelter's Melodie 1812 aus Fdur *, beginnt:
!!c|acf(ga)bgg."
!!@@END:
!!Text: J. W. v. Goethe
!!!URL-scan: https://archive.org/details/BoehmeVtLieder1895/page/n117/mode/2up
!!!ENC: Anna Maria Matuszewska
!!!EEV: 2024/17/06
*-	*-
